X:1
T:Title
%%score ( 1 2 ) { 3 | 4 }
L:1/8
Q:1/4=180
M:3/2
K:F
V:1 treble nm="Grand Piano, Staff 1"
V:2 treble 
V:3 treble nm="Choir Pad, Arlington, CM"
V:4 bass 
V:1
 F4 [FA]3 [FA] [FA]4 | [EG]4 [DF]3 [DF] [DF]4 | z4 z4 B4 | [FA]4 [FA]4 [EG]4 | %4
w: By~Thomas~Augustine~Arne,~1762 * * *||||
 [GB]4 [FA]3 [FA] [FA]4 | [Fd]4 [Fc]3 [Fc] [Fc]4 | [CF]4 [DG]2 [GB]2 [FA]4 | [EG]4 F8- | %8
w: ||||
 F4 z4 z4 |] %9
w: |
V:2
 x12 | x12 | [EG]4 [FA]2 [Cc]2 D2 E2 | x12 | x12 | x12 | x12 | x12 | x12 |] %9
V:3
 A,4 C3 C C4 | B,4[K:bass] A,3 A, A,4 | C4 C2 A,2 B,4 | C4 C8 | C4 C3 C C4 | B,4 A,3 A, A,4 | %6
 C4 B,2[K:treble] D2 C4 | C2 B,2 A,8- | A,4 z4 z4 |] %9
V:4
 F,4 F,3 F, F,4 | C,4 D,3 D, D,4 | C,4 .F,4 G,4 | F,4 C,8 | E,4 F,3 F, F,4 | B,,4 F,3 F, F,4 | %6
 A,,4 B,,2 G,,2 C,4 | C,4 F,8- | F,4 z4 z4 |] %9

